X:7682
T:Morgonstund
C:anon.
O:Norway?
R:Rundsang, round, canon
F:http://abc.musicaviva.com/tunes/norway/morgonstund02/morgonstund02-voca3.abc
M:3/4
L:1/4
K:Bb
"^1"(BF)d|c2z|(cF)e|d2z|
w:Mor--gon-stund, mor--gon-stund,
d2d|(ed)c|(Bc)A|B2z|
w:mor-gon-stund_ har gull_ i munn.
"^2"(DF)B|A2z|(AF)c|B2z|
w:Mor--gon-stund, mor--gon-stund,
B2B|(GF)E|(DE)C|D2z|
w:mor-gon-stund_ har gull_ i munn.
"^3"(B,D)B,|F2z|(FA)F|B2z|
w:Mor--gon-stund, mor--gon-stund,
(B/A/ G/F/) E/D/|(CD)E|F2F|B,2z|]
w:mor----gon--stund_ har gull i munn.
W:
W:Morgonstund har gull i munn.
W:
W:
W:  From Musica Viva - http://www.musicaviva.com
W:  the Internet center for free sheet music downloads.

